img/illustrations/Your_organization_is_a_non-resident_of_the_Republic_of_Belarus.svg

<svg width="145" height="145" viewBox="0 0 145 145" fill="none" xmlns="http://www.w3.org/2000/svg">
<path d="M138.88 121H24.88" stroke="#007B64" stroke-width="2" stroke-linecap="round" stroke-linejoin="round"/>
<path d="M19 121H6" stroke="#007B64" stroke-width="2" stroke-linecap="round" stroke-linejoin="round"/>
<path d="M31.8199 49C35.0983 42.8415 39.8111 37.5628 45.5599 33.61C50.82 29.9976 56.8141 27.5935 63.1125 26.5702C69.411 25.5468 75.8578 25.9295 81.991 27.6908C88.1241 29.4521 93.7917 32.5484 98.5874 36.7578C103.383 40.9672 107.188 46.1853 109.73 52.0383C112.272 57.8912 113.487 64.234 113.289 70.612C113.092 76.99 111.485 83.2452 108.585 88.9293C105.685 94.6134 101.564 99.5856 96.5166 103.489C91.4691 107.393 85.6205 110.132 79.3899 111.51C78.2599 111.76 77.1099 111.96 75.9499 112.12C74.0011 112.385 72.0367 112.519 70.0699 112.52C58.5967 112.52 47.5933 107.962 39.4805 99.8494C31.3677 91.7366 26.8099 80.7333 26.8099 69.26C26.8088 67.6196 26.8989 65.9804 27.0799 64.35" fill="white"/>
<path d="M73.5399 112.38C72.3899 112.47 71.2299 112.52 70.0699 112.52C58.5967 112.52 47.5933 107.962 39.4805 99.8494C31.3677 91.7366 26.8099 80.7333 26.8099 69.26C26.8088 67.6196 26.8989 65.9804 27.0799 64.35" stroke="#007B64" stroke-width="2" stroke-linecap="round" stroke-linejoin="round"/>
<path d="M113.25 66.77C113.25 67.59 113.32 68.42 113.32 69.26C113.32 79.1132 109.957 88.6713 103.788 96.3539C97.6179 104.036 89.0109 109.383 79.39 111.51" stroke="#007B64" stroke-width="2" stroke-linecap="round" stroke-linejoin="round"/>
<path d="M31.8199 49C35.0983 42.8415 39.811 37.5628 45.5599 33.61C51.2388 29.7092 57.7669 27.2205 64.6013 26.3508C71.4357 25.4811 78.379 26.2556 84.8539 28.6098C91.3287 30.964 97.148 34.8299 101.828 39.8861C106.508 44.9424 109.913 51.0427 111.76 57.68" stroke="#007B64" stroke-width="2" stroke-linecap="round" stroke-linejoin="round"/>
<path d="M70.07 112.52C57.25 112.52 46.86 93.15 46.86 69.26C46.86 45.37 57.25 26 70.07 26C78.23 26 85.4 33.85 89.54 45.71C90.13 47.41 90.66 49.19 91.12 51.03C91.7035 53.3609 92.1642 55.7208 92.5 58.1" stroke="#007B64" stroke-width="2" stroke-miterlimit="10" stroke-linecap="round"/>
<path d="M70.0699 26V112.48" stroke="#007B64" stroke-width="2" stroke-miterlimit="10"/>
<path d="M34.17 44.86H105.62" stroke="#007B64" stroke-width="2" stroke-miterlimit="10"/>
<path d="M80.35 93.4H105.62" stroke="#007B64" stroke-width="2" stroke-miterlimit="10" stroke-linecap="round"/>
<path d="M34.17 93.4H75.57" stroke="#007B64" stroke-width="2" stroke-miterlimit="10" stroke-linecap="round"/>
<path d="M27.6899 69.13H75.4999" stroke="#007B64" stroke-width="2" stroke-miterlimit="10" stroke-linecap="round"/>
<path d="M120.47 63.91H79.36C77.7031 63.91 76.36 65.2531 76.36 66.91V115.58C76.36 117.237 77.7031 118.58 79.36 118.58H120.47C122.127 118.58 123.47 117.237 123.47 115.58V66.91C123.47 65.2531 122.127 63.91 120.47 63.91Z" fill="white"/>
<path d="M76.36 116.37V68.57C76.36 67.6408 76.7284 66.7495 77.3845 66.0916C78.0406 65.4336 78.9308 65.0626 79.86 65.06H119.93C120.859 65.0626 121.749 65.4336 122.405 66.0916C123.062 66.7495 123.43 67.6408 123.43 68.57V116.65C123.43 117.578 123.061 118.469 122.405 119.125C121.748 119.781 120.858 120.15 119.93 120.15H79.86C78.9317 120.15 78.0415 119.781 77.3851 119.125C76.7287 118.469 76.36 117.578 76.36 116.65V116.79" stroke="#007B64" stroke-width="2" stroke-linecap="round" stroke-linejoin="round"/>
<path d="M82.26 65.06V120.15" stroke="#007B64" stroke-width="2" stroke-linecap="round" stroke-linejoin="round"/>
<path d="M127.41 67.12C127.896 67.4277 128.296 67.8529 128.574 68.3563C128.852 68.8596 128.998 69.425 129 70V116.67C129 117.124 128.91 117.574 128.737 117.994C128.563 118.414 128.308 118.795 127.987 119.117C127.665 119.438 127.284 119.693 126.864 119.867C126.444 120.04 125.994 120.13 125.54 120.13H118.86" stroke="#007B64" stroke-width="2" stroke-linecap="round" stroke-linejoin="round"/>
<path d="M91.02 76.33H114.51" stroke="#FFC463" stroke-width="2" stroke-linecap="round" stroke-linejoin="round"/>
<path d="M116.33 80.84H89.2" stroke="#FFC463" stroke-width="2" stroke-linecap="round" stroke-linejoin="round"/>
<path d="M109.76 90.86H95.76C94.1032 90.86 92.76 92.2031 92.76 93.86V105.89C92.76 107.547 94.1032 108.89 95.76 108.89H109.76C111.417 108.89 112.76 107.547 112.76 105.89V93.86C112.76 92.2031 111.417 90.86 109.76 90.86Z" fill="#FFC463"/>
</svg>

<svg width="145" height="145" fill="none" xmlns="http://www.w3.org/2000/svg"><path d="M138.88 121h-114M19 121H6" stroke="#007B64" stroke-width="2" stroke-linecap="round" stroke-linejoin="round"/><path d="M31.82 49a43.462 43.462 0 0113.74-15.39 43.26 43.26 0 1133.83 77.9 43.805 43.805 0 01-9.32 1.01 43.261 43.261 0 01-43.26-43.26 44.23 44.23 0 01.27-4.91" fill="#fff"/><path d="M73.54 112.38a43.261 43.261 0 01-46.73-43.12 44.23 44.23 0 01.27-4.91m86.17 2.42c0 .82.07 1.65.07 2.49a43.274 43.274 0 01-33.93 42.25M31.82 49a43.46 43.46 0 0113.74-15.39 43.28 43.28 0 0166.2 24.07" stroke="#007B64" stroke-width="2" stroke-linecap="round" stroke-linejoin="round"/><path d="M70.07 112.52c-12.82 0-23.21-19.37-23.21-43.26C46.86 45.37 57.25 26 70.07 26c8.16 0 15.33 7.85 19.47 19.71.59 1.7 1.12 3.48 1.58 5.32a68.585 68.585 0 011.38 7.07" stroke="#007B64" stroke-width="2" stroke-miterlimit="10" stroke-linecap="round"/><path d="M70.07 26v86.48m-35.9-67.62h71.45" stroke="#007B64" stroke-width="2" stroke-miterlimit="10"/><path d="M80.35 93.4h25.27m-71.45 0h41.4M27.69 69.13H75.5" stroke="#007B64" stroke-width="2" stroke-miterlimit="10" stroke-linecap="round"/><path d="M120.47 63.91H79.36a3 3 0 00-3 3v48.67a3 3 0 003 3h41.11a3 3 0 003-3V66.91a3 3 0 00-3-3z" fill="#fff"/><path d="M76.36 116.37v-47.8a3.51 3.51 0 013.5-3.51h40.07a3.509 3.509 0 013.5 3.51v48.08a3.502 3.502 0 01-3.5 3.5H79.86a3.501 3.501 0 01-3.5-3.5v.14m5.9-51.73v55.09" stroke="#007B64" stroke-width="2" stroke-linecap="round" stroke-linejoin="round"/><path d="M127.41 67.12A3.419 3.419 0 01129 70v46.67a3.474 3.474 0 01-1.013 2.447 3.474 3.474 0 01-2.447 1.013h-6.68" stroke="#007B64" stroke-width="2" stroke-linecap="round" stroke-linejoin="round"/><path d="M91.02 76.33h23.49m1.82 4.51H89.2" stroke="#FFC463" stroke-width="2" stroke-linecap="round" stroke-linejoin="round"/><path d="M109.76 90.86h-14a3 3 0 00-3 3v12.03a3 3 0 003 3h14a3 3 0 003-3V93.86a3 3 0 00-3-3z" fill="#FFC463"/></svg>
